X: 116
T: J'ay pris amours
%%abc-version 2.0
%%abcx-abcm2ps-target-version 5.9.1 (29 Sep 2008)
%%abc-creator hum2abc beta
%%abcx-conversion-date 2022/03/06 13:05:58
%%abc-copyright Copyright 2018, Kolb, Paul
%%abc-edited-by Zybina, Karina
%%humdrum-veritas 3648885327
%%humdrum-veritas-data 1196050268
%%linebreak <none>
%%barnumbers 0
L: 1/4
M: 2/2
N: Derived from Gas0509.2-Jay_pris_amours.krn
%%staves {1 2}
V: 1 clef=treble
V: 2 clef=bass
K: C
[V:1] G,4 & x4 | 
[V:2] x4- & G,4 | 
[V:1] _B,2B,2 & x4 | 
[V:2] x4- & G,2_E,G, | 
[V:1] A,4 & x4 | 
[V:2] x4 & D,4 | 
[V:1] G,2_B,3/C/ & x4 | 
[V:2] G,4 & G,,4 | 
[V:1] D_EDG- & x4 | 
[V:2] _B,2B,2 & G,2_E,G, | 
[V:1] GF/E/ F/E/D/C/ & x4 | 
[V:2] A,4 & D,>C,D,2 | 
[V:1] G4 & _B,>CD2 | 
[V:2] G,2_B,2 & G,,4 | 
[V:1] _B2B2 & zCDE | 
[V:2] zA,_B,2 & G,4 | 
[V:1] A4 & F4 | 
[V:2] C2D2 & F,2D,2 | 
[V:1] D4 & G4 | 
[V:2] zCD2 & G,4 | 
[V:1] z2F2 & G2FD- | 
[V:2] _E2D2 & C,2D,2 | 
[V:1] G2A2 & DEF2 | 
[V:2] zB,C2 & G,2F,2 | 
[V:1] _B2AF & D>EF2 | 
[V:2] _B,>CD2 & G,2D,2 | 
[V:1] G2F2 & _B,2FD | 
[V:2] zCD2 & G,2D,2 | 
[V:1] z2A2 & EG2^F | 
[V:2] G,2A,2 & C,_E,D,2 | 
[V:1] _B2c2 & G>FEF | 
[V:2] G,2z2 & G,,2z2 | 
[V:1] d2cA & zE/D/EF | 
[V:2] x4 & D,2z2 | 
[V:1] _BG2A & D_B,>G,C | 
[V:2] x4 & G,3F, | 
[V:1] G^F/E/F2 & _B,G,A,2 | 
[V:2] x4 & G,2D,2 | 
[V:1] G4 & G,2D3/E/ | 
[V:2] z2G,2 & G,,>A,,_B,,C, | 
[V:1] FDCD- & x4 | 
[V:2] F,_B,A,B, & D,>E,F,G, | 
[V:1] G4 & D^C/B,/C2 | 
[V:2] z/ A,/G,/F,/G,2 & z/ F,/E,/D,/E,2 | 
[V:1] _B2A2- & D4 | 
[V:2] z2A,3/_B,/ & D,4 | 
[V:1] A2F2 | 
[V:2] CDC3/D/ | 
[V:1] G2F2- | 
[V:2] _B,_E2F | 
[V:1] F2_B2 | 
[V:2] z/ _E/D/C/_ED | 
[V:1] zA/G/A2 | 
[V:2] zC/_B,/C2 & F,2F,2 | 
[V:1] _B4 & D3C/_B,/ | 
[V:2] _B,B,2A,/G,/ & _B,,3C, | 
[V:1] z4 & A,_B,CA, | 
[V:2] F,>E,G,F, & D,2C,D, | 
[V:1] _B4 & G,2DE | 
[V:2] G,4 & G,,_B,,2C, | 
[V:1] A2F2 & F>ED2 | 
[V:2] F,4 & D,4 | 
[V:1] G4 & z^C/B,/^C2 | 
[V:2] E,4 & G,4 | 
[V:1] F2D2- & DC/_B,/A,2 | 
[V:2] D,4 & A,4 | 
[V:1] D2G2- & A,2G,D | 
[V:2] D2C_B, & D,2_E,D,- | 
[V:1] G2^F2 & _B,CD2 | 
[V:2] G,2A,2 & D,G,D,2 | 
[V:1] G2A2 & _B,2C2 | 
[V:2] G,2z2 & G,2F,2 | 
[V:1] F4 & D3E/F/ | 
[V:2] x4 & D,4 | 
[V:1] G2FD- & x4 | 
[V:2] z2_B,2- & G,,2z2 | 
[V:1] DGAG- & x4 | 
[V:2] B,2C2 & G,2C,2 | 
[V:1] G^F/E/^F2 & x4 | 
[V:2] A,4 & D,4 | 
[V:1] zG2F/E/ & x4 | 
[V:2] G,4 & G,,4 | 
[V:1] D2C2 & x4 | 
[V:2] _B,2A,2 & z4 | 
[V:1] CD2_B,- & x4 | 
[V:2] F,2G,2 & z2G,,2 | 
[V:1] B,A,/G,/A,2 & x4 | 
[V:2] z^F,/E,/^F,2 & D,4 | 
[V:1] G,D_ED- & x4 | 
[V:2] G,4 & G,,4 | 
[V:1] F4 & DC/_B,/A,2 | 
[V:2] z4 & D,4 | 
[V:1] G3F & G,2_B,2 | 
[V:2] z2G,2 & G,,4 | 
[V:1] EDD2 & CA,2_B, | 
[V:2] A,F,2G, & z4 | 
[V:1] z^C/B,/C2 & z/ A,/G,/F,/A,2 | 
[V:2] z/ F,/D,E,2 & _B,,2A,,2 | 
[V:1] D4 & F,2G,2 | 
[V:2] D,4 & _B,,2G,,2 | 
[V:1] z2A2 & A,_B,A,D- | 
[V:2] z2D,2 & D,2z2 | 
[V:1] A2A2 & DC/_B,/A,2 | 
[V:2] F,4 & D,4 | 
[V:1] _B3A & G,2_B,2 | 
[V:2] G,4 & G,,4 | 
[V:1] F2G2 & A,2_B,2 | 
[V:2] A,2G,2 & D,2G,,2 | 
[V:1] A2F2 & C2D2 | 
[V:2] E,2F,2 & z2D,2 | 
[V:1] zE/D/E2 | 
[V:2] G,4 & C,4 | 
[V:1] F4 | 
[V:2] F,2D,2 & D,4 | 
[V:1] z2D2 | 
[V:2] E,2F,2 | 
[V:1] E2F2 | 
[V:2] G,2D,2 & z2D,2 | 
[V:1] G2D2 | 
[V:2] _B,2A,2 & E,2F,2 | 
[V:1] z2F2 & D4 | 
[V:2] _B,D>CD & G,2D,2 | 
[V:1] G2F2 & _E2D2 | 
[V:2] G,CA,D & C,2D,2 | 
[V:1] _B3A & z/ C/DzF | 
[V:2] _B,4 & G,,2G,2 | 
[V:1] G2F2 & G/F/GAD- | 
[V:2] C2D2 & E,2D,2 | 
[V:1] _B2Ad- & D/ z/ E//F//G/FG/A/ | 
[V:2] D4 & G,2D,2 | 
[V:1] dcA2 & DG2^F | 
[V:2] DCD2 & G,2A,2 | 
[V:1] _B2G2 & GD>CD | 
[V:2] D2_B,2 & G,4 | 
[V:1] z^F/E/F2 & z/ C<DC/D | 
[V:2] A,4 & D,4 | 
[V:1] G4 & _B,3C | 
[V:2] G,4 & G,,4 | 
[V:1] G4 & D4 |]  
[V:2] G,4 & G,,4 |]  


